!!!!SEGMENT: pl-wtm--r-2581_hertz-michal--marsz.krn
!!!cenid: 18xx:3125
!!!COM: Hertz, Michał
!!!COM-rismid: pe41023359
!!!CDT: 1844/09/28-~1918
!!!CNT: Polish
!!!OTL: Marsz
!!!PDT:
!!!AGN:
!!!SMS-siglum: PL-Wtm
!!!SMS-shelfmark: R 2581
!!!SMS-shelfwork: W
!!!SMS-variant:
!!!SMS-altvar:
!!!NIFC-rismid: 1001082450
!!!URL-scan: http://repozytorium.nifc.pl/skany/pl-wtm-nut--r2581
!!!ONB-nifc:
!!!OMD: Allegro mod.
!!!key: A
**kern	**dynam	**kern	**dynam	**kern	**dynam	**kern	**dynam	**kern	**dynam	**kern	**kern	**dynam	**kern	**dynam	**kern	**dynam	**kern	**dynam	**kern	**dynam	**kern	**dynam	**kern	**dynam	**kern	**dynam
*part14	*part14	*part13	*part13	*part12	*part12	*part11	*part11	*part10	*part10	*part9	*part8	*part8	*part7	*part7	*part6	*part6	*part5	*part5	*part4	*part4	*part3	*part3	*part2	*part2	*part1	*part1
*staff14	*staff14	*staff13	*staff13	*staff12	*	*staff11	*	*staff10	*	*staff9	*staff8	*	*staff7	*	*staff6	*	*staff5	*	*staff4	*	*staff3	*	*staff2	*	*staff1	*
*I"Bass	*	*I"Cello	*	*I"Viole	*	*I"Viol 2	*	*I"Viol 1	*	*I"Triangle	*I"Timp a,E	*	*I"Tromb	*	*I"Trombi in F	*	*I"Corni in F	*	*I"a Fag	*	*I"2 Cl in a	*	*I"Ob	*	*I"Fl	*
*I'cb	*	*I'vlc	*	*I'vle	*	*I'vl 2	*	*I'vl 1	*	*I'triangolo	*I'timp	*	*I'trb	*	*I'tr in F	*	*I'cor in F	*	*I'fag	*	*I'cl in A	*	*I'ob	*	*I'fl	*
*Icbass	*	*Icello	*	*Iviola	*	*Ivioln	*	*Ivioln	*	*Itrngl	*Itimpa	*	*Itromt	*	*	*	*Icor	*	*Ifagot	*	*Iclars	*	*Ioboe	*	*Iflt	*
*ICstr	*	*ICstr	*	*ICstr	*	*ICstr	*	*ICstr	*	*ICidio	*ICidio	*	*ICbras	*	*ICbras	*	*ICbras	*	*ICww	*	*ICww	*	*ICww	*	*ICww	*
*clefF4	*	*clefF4	*	*clefC3	*	*clefG2	*	*clefG2	*	*clefG2	*clefF4	*	*clefF4	*	*clefG2	*	*clefG2	*	*clefF4	*	*clefG2	*	*clefG2	*	*clefG2	*
*ITrd0c0	*	*	*	*	*	*	*	*	*	*ITrd0c0	*	*	*	*	*ITrd-3c-5	*	*ITrd4c7	*	*	*	*ITrd2c3	*	*	*	*	*
*k[f#c#g#]	*	*k[f#c#g#]	*	*k[f#c#g#]	*	*k[f#c#g#]	*	*k[f#c#g#]	*	*k[]	*k[]	*	*k[f#c#g#]	*	*k[b-]	*	*k[b-]	*	*k[f#c#g#]	*	*k[f#c#g#]	*	*k[f#c#g#]	*	*k[f#c#g#]	*
*A:	*	*A:	*	*A:	*	*A:	*	*A:	*	*A:	*A:	*	*A:	*	*A:	*	*A:	*	*A:	*	*A:	*	*A:	*	*A:	*
*	*	*	*	*	*	*	*	*	*	*	*	*	*	*	*	*	*	*	*	*	*	*	*	*	*	*
*M2/2	*	*M2/2	*	*M2/2	*	*M2/2	*	*M2/2	*	*M2/2	*M2/2	*	*M2/2	*	*M2/2	*	*M2/2	*	*M2/2	*	*M2/2	*	*M2/2	*	*M2/2	*
*met(c|)	*	*met(c|)	*	*met(c|)	*	*met(c|)	*	*met(c|)	*	*met(c|)	*met(c|)	*	*met(c|)	*	*met(c|)	*	*met(c|)	*	*met(c|)	*	*met(c|)	*	*met(c|)	*	*met(c|)	*
=1	=1	=1	=1	=1	=1	=1	=1	=1	=1	=1	=1	=1	=1	=1	=1	=1	=1	=1	=1	=1	=1	=1	=1	=1	=1	=1
*	*	*	*	*	*	*	*	*	*	*	*	*	*	*	*^	*	*^	*	*	*	*^	*	*	*	*	*
*2\right	*	*2\right	*	*	*	*	*	*	*	*	*tremolo	*	*	*	*	*	*	*	*2\right	*	*2\right	*	*	*	*	*	*	*	*
!LO:TX:b:t=allegro mod.	!	!	!	!	!	!	!	!LO:TX:a:t=allegro mor.	!	!LO:TX:t=P:problem:dwa systemy wykreślone a w ich miejsce wstawiony trangiel ołówkiem	!	!	!	!	!	!	!	!	!	!	!	!	!	!	!	!	!	!	!
!	!LO:DY:rj	!	!LO:DY:rj	!	!LO:DY:rj	!	!LO:DY:rj	!	!LO:DY:rj	!	!	!LO:DY:rj	!	!LO:DY:rj	!	!	!LO:DY:rj	!	!	!LO:DY:rj	!	!LO:DY:rj	!	!	!LO:DY:rj	!	!LO:DY:rj	!	!LO:DY:rj
2.A\yy	fy	2.A\	f	2.A/	f	(4e/	f	(4cc#\	f	1r	32Rf/LLL	f	2.AA/	f	2r	2ryy	f	2.A/	2.A\	f	2.A\	f	(4cc#\	(4e\	f	(4ee\	f	(4ccc#\	f
.	.	.	.	.	.	.	.	.	.	.	32Rf/	.	.	.	.	.	.	.	.	.	.	.	.	.	.	.	.	.	.
.	.	.	.	.	.	.	.	.	.	.	32Rf/	.	.	.	.	.	.	.	.	.	.	.	.	.	.	.	.	.	.
.	.	.	.	.	.	.	.	.	.	.	32Rf/	.	.	.	.	.	.	.	.	.	.	.	.	.	.	.	.	.	.
.	.	.	.	.	.	.	.	.	.	.	32Rf/	.	.	.	.	.	.	.	.	.	.	.	.	.	.	.	.	.	.
.	.	.	.	.	.	.	.	.	.	.	32Rf/	.	.	.	.	.	.	.	.	.	.	.	.	.	.	.	.	.	.
.	.	.	.	.	.	.	.	.	.	.	32Rf/	.	.	.	.	.	.	.	.	.	.	.	.	.	.	.	.	.	.
.	.	.	.	.	.	.	.	.	.	.	32Rf/	.	.	.	.	.	.	.	.	.	.	.	.	.	.	.	.	.	.
.	.	.	.	.	.	8d/L)	.	8b\L)	.	.	32Rf/	.	.	.	.	.	.	.	.	.	.	.	8b\L)	8d\L)	.	8dd\L)	.	8bb\L)	.
.	.	.	.	.	.	.	.	.	.	.	32Rf/	.	.	.	.	.	.	.	.	.	.	.	.	.	.	.	.	.	.
.	.	.	.	.	.	.	.	.	.	.	32Rf/	.	.	.	.	.	.	.	.	.	.	.	.	.	.	.	.	.	.
.	.	.	.	.	.	.	.	.	.	.	32Rf/	.	.	.	.	.	.	.	.	.	.	.	.	.	.	.	.	.	.
.	.	.	.	.	.	8e/J	.	8cc#\J	.	.	32Rf/	.	.	.	.	.	.	.	.	.	.	.	8cc#\J	8e\J	.	8ee\J	.	8ccc#\J	.
.	.	.	.	.	.	.	.	.	.	.	32Rf/	.	.	.	.	.	.	.	.	.	.	.	.	.	.	.	.	.	.
.	.	.	.	.	.	.	.	.	.	.	32Rf/	.	.	.	.	.	.	.	.	.	.	.	.	.	.	.	.	.	.
.	.	.	.	.	.	.	.	.	.	.	32Rf/JJJ	.	.	.	.	.	.	.	.	.	.	.	.	.	.	.	.	.	.
*	*	*	*	*	*	*	*	*	*	*	*Xtremolo	*	*	*	*	*	*	*	*	*	*	*	*	*	*	*	*	*	*
.	.	.	.	.	.	4c#/	.	4a/	.	.	8Rf/	.	.	.	4r	4ryy	.	.	.	.	.	.	4a/	4c#\ 4a	.	4cc#'\	.	4aa'\	.
.	.	.	.	.	.	.	.	.	.	.	8r	.	.	.	.	.	.	.	.	.	.	.	.	.	.	.	.	.	.
!	!	!	!	!	!	!	!	!	!	!	!	!	!	!	!	!	!LO:DY:rj	!	!	!	!	!	!	!	!	!	!	!	!
4c#\yy	.	4c#\	.	4c#\	.	4e/	.	4e/	.	.	4r	.	4C#/	.	4a/	4a\	f	4e/	4c#X\	.	4c#\	.	4e/	4e\	.	4ee'\	.	4ee'\	.
=2	=2	=2	=2	=2	=2	=2	=2	=2	=2	=2	=2	=2	=2	=2	=2	=2	=2	=2	=2	=2	=2	=2	=2	=2	=2	=2	=2	=2	=2
*	*	*	*	*	*	*	*	*	*	*	*	*	*	*	*	*2\right	*	*	*	*	*	*	*	*	*	*	*	*	*
(4d\yy	.	(4d\	.	(4d\	.	(4f#/	.	(4f#/	.	1r	1r	.	(4D\	.	2.a/	2.a\	.	(4f#X\	(4d\	.	(4d\	.	(4f#/	4f#\	.	(4ff#\	.	(4ff#\	.
4c#\)yy	.	4c#\)	.	4c#\)	.	4e/)	.	4e'/)	.	.	.	.	4C#\)	.	.	.	.	4e\)	4c#X\)	.	4c#\)	.	4e/)	4e\	.	4ee\)	.	4ee'\)	.
4d'\yy	.	4d'\	.	4d'\	.	4f#'/	.	4f#'/	.	.	.	.	4D\	.	.	.	.	4f#\	4d\	.	4d\	.	4f#/	4f#\	.	4ff#\	.	4ff#'\	.
4B'\yy	.	4B'\	.	4B'\	.	4d'/	.	4g#'/	.	.	.	.	4BB\	.	4ee\	4e\	.	4e/	4d\	.	4B\	.	4g#/	4d\ 4g#	.	4dd\	.	4gg#'\	.
*	*	*	*	*	*	*	*	*	*	*	*	*	*	*	*v	*v	*	*	*	*	*	*	*	*	*	*	*	*	*
=3	=3	=3	=3	=3	=3	=3	=3	=3	=3	=3	=3	=3	=3	=3	=3	=3	=3	=3	=3	=3	=3	=3	=3	=3	=3	=3	=3	=3
*	*	*	*	*2\right	*	*	*	*	*	*	*	*	*	*	*	*	*	*	*	*	*	*	*2\right	*	*2\right	*	*	*
(2c#\yy	.	(2c#\	.	(2c#\	.	2e/	.	(4a/	.	1r	2r	.	(>2C#/	.	2e\ 2ee	.	2e/	(2c#X\	.	(2c#\	.	(4a/	2e\	.	2ee\	.	(4aa\	.
.	.	.	.	.	.	.	.	8g#/L)	.	.	.	.	.	.	.	.	.	.	.	.	.	(<8g#/L)	.	.	.	.	8gg#\L)	.
.	.	.	.	.	.	.	.	8a/J	.	.	.	.	.	.	.	.	.	.	.	.	.	8a/J)	.	.	.	.	8aa'\J	.
4G#\)yy	.	4G#\)	.	4B/)	.	4e/	.	4dd\	.	.	4r	.	4GG#/)	.	4e\ 4ee	.	4e/	4BX\)	.	4B\)	.	4dd/	4e\	.	4ee\	.	4ddd\	.
4A\yy	.	4A\	.	4A/	.	4e/	.	4cc#\	.	.	4Rcc\	.	4AA/	.	4e\ 4ee	.	4e/	4c#\	.	4c#\	.	4cc#/	4e\	.	4ee\	.	4ccc#\	.
=4	=4	=4	=4	=4	=4	=4	=4	=4	=4	=4	=4	=4	=4	=4	=4	=4	=4	=4	=4	=4	=4	=4	=4	=4	=4	=4	=4	=4
*	*	*	*	*	*	*	*	*	*	*	*tremolo	*	*	*	*	*	*	*	*	*	*	*	*	*	*	*	*	*
4E\yy	.	4E\	.	(4A/	.	4e/	.	(4cc#\	.	1r	32Rcc\LLL	.	4D\	.	4e\ 4ee	.	4e/	(<4A\	.	(4A\	.	(4cc#/	4e\	.	4ee\	.	(4ccc#\	.
.	.	.	.	.	.	.	.	.	.	.	32Rcc\	.	.	.	.	.	.	.	.	.	.	.	.	.	.	.	.	.
.	.	.	.	.	.	.	.	.	.	.	32Rcc\	.	.	.	.	.	.	.	.	.	.	.	.	.	.	.	.	.
.	.	.	.	.	.	.	.	.	.	.	32Rcc\	.	.	.	.	.	.	.	.	.	.	.	.	.	.	.	.	.
.	.	.	.	.	.	.	.	.	.	.	32Rcc\	.	.	.	.	.	.	.	.	.	.	.	.	.	.	.	.	.
.	.	.	.	.	.	.	.	.	.	.	32Rcc\	.	.	.	.	.	.	.	.	.	.	.	.	.	.	.	.	.
.	.	.	.	.	.	.	.	.	.	.	32Rcc\	.	.	.	.	.	.	.	.	.	.	.	.	.	.	.	.	.
.	.	.	.	.	.	.	.	.	.	.	32Rcc\JJJ	.	.	.	.	.	.	.	.	.	.	.	.	.	.	.	.	.
*	*	*	*	*	*	*	*	*	*	*	*Xtremolo	*	*	*	*	*	*	*	*	*	*	*	*	*	*	*	*	*
4E\yy	.	4E\	.	4G#/)	.	4e/	.	4b\)	.	.	4Rcc\	.	4E\	.	4e\ 4ee	.	4e/	4G#X\)	.	4G#\)	.	4b/)	4d\	.	4ee\	.	4bb\)	.
4ryy	.	4r	.	4r	.	4r	.	4r	.	.	2r	.	4r	.	2r	.	4r	4r	.	4r	.	4r	4ryy	.	4r	.	4r	.
8F#\Lyy	.	8F#\L	.	8F#/L	.	8f#/L	.	8f#/L	.	.	.	.	8F#\L	.	.	.	8f#X/L	8F#X\L	.	8F#\L	.	8f#/L	8f#\L	.	8ff#\L	.	8ff#\L	.
8F#\Jyy	.	8F#\J	.	8F#/J	.	8f#/J	.	8f#/J	.	.	.	.	8F#\J	.	.	.	8f#/J	8F#\J	.	8F#\J	.	8f#/J	8f#\J	.	8ff#\J	.	8ff#\J	.
=5	=5	=5	=5	=5	=5	=5	=5	=5	=5	=5	=5	=5	=5	=5	=5	=5	=5	=5	=5	=5	=5	=5	=5	=5	=5	=5	=5	=5
*	*	*	*	*	*	*	*	*	*	*	*	*	*	*	*^	*	*	*	*	*	*	*	*	*	*	*	*	*
*	*	*	*	*	*	*	*	*	*	*	*2\right	*	*	*	*	*	*	*	*	*	*	*	*	*	*	*	*	*	*
*	*	*	*	*	*	*	*	*	*	*	*tremolo	*	*	*	*	*	*	*	*	*	*	*	*	*	*	*	*	*	*
2.B\yy	.	2.B\	.	2.B/	.	(4e/	.	(4dd\	.	1r	32Rcc\LLL	.	2.BB/	.	2r	2ryy	.	2.BnX/	2.BnX\	.	2.B\	.	(4dd\	(4f#\	.	(4ff#\	.	(4ddd\	.
.	.	.	.	.	.	.	.	.	.	.	32Rcc\	.	.	.	.	.	.	.	.	.	.	.	.	.	.	.	.	.	.
.	.	.	.	.	.	.	.	.	.	.	32Rcc\	.	.	.	.	.	.	.	.	.	.	.	.	.	.	.	.	.	.
.	.	.	.	.	.	.	.	.	.	.	32Rcc\	.	.	.	.	.	.	.	.	.	.	.	.	.	.	.	.	.	.
.	.	.	.	.	.	.	.	.	.	.	32Rcc\	.	.	.	.	.	.	.	.	.	.	.	.	.	.	.	.	.	.
.	.	.	.	.	.	.	.	.	.	.	32Rcc\	.	.	.	.	.	.	.	.	.	.	.	.	.	.	.	.	.	.
.	.	.	.	.	.	.	.	.	.	.	32Rcc\	.	.	.	.	.	.	.	.	.	.	.	.	.	.	.	.	.	.
.	.	.	.	.	.	.	.	.	.	.	32Rcc\	.	.	.	.	.	.	.	.	.	.	.	.	.	.	.	.	.	.
.	.	.	.	.	.	8e/L)	.	8cc#\L	.	.	32Rcc\	.	.	.	.	.	.	.	.	.	.	.	8cc#\L)	8e\L)	.	8ee\L)	.	8ccc#'\L)	.
.	.	.	.	.	.	.	.	.	.	.	32Rcc\	.	.	.	.	.	.	.	.	.	.	.	.	.	.	.	.	.	.
.	.	.	.	.	.	.	.	.	.	.	32Rcc\	.	.	.	.	.	.	.	.	.	.	.	.	.	.	.	.	.	.
.	.	.	.	.	.	.	.	.	.	.	32Rcc\	.	.	.	.	.	.	.	.	.	.	.	.	.	.	.	.	.	.
.	.	.	.	.	.	8f#/J	.	8dd\J)	.	.	32Rcc\	.	.	.	.	.	.	.	.	.	.	.	8dd\J	8f#\J	.	8ff#\J	.	8ddd\J	.
.	.	.	.	.	.	.	.	.	.	.	32Rcc\	.	.	.	.	.	.	.	.	.	.	.	.	.	.	.	.	.	.
.	.	.	.	.	.	.	.	.	.	.	32Rcc\	.	.	.	.	.	.	.	.	.	.	.	.	.	.	.	.	.	.
.	.	.	.	.	.	.	.	.	.	.	32Rcc\JJJ	.	.	.	.	.	.	.	.	.	.	.	.	.	.	.	.	.	.
*	*	*	*	*	*	*	*	*	*	*	*Xtremolo	*	*	*	*	*	*	*	*	*	*	*	*	*	*	*	*	*	*
.	.	.	.	.	.	4d/	.	4b\	.	.	8Rcc\	.	.	.	4r	4ryy	.	.	.	.	.	.	4b/	4d\ 4b	.	4dd\	.	4bb\	.
.	.	.	.	.	.	.	.	.	.	.	8r	.	.	.	.	.	.	.	.	.	.	.	.	.	.	.	.	.	.
4d\yy	.	4d\	.	4d\	.	4f#/	.	4f#/	.	.	4r	.	4D\	.	4bnX/	4bnX\	.	4f#X/	4d\	.	4d\	.	4f#/	4f#\	.	4ff#\	.	4ff#'\	.
*	*	*	*	*	*	*	*	*	*	*	*	*	*	*	*	*	*	*	*	*	*	*	*v	*v	*	*	*	*	*
=6	=6	=6	=6	=6	=6	=6	=6	=6	=6	=6	=6	=6	=6	=6	=6	=6	=6	=6	=6	=6	=6	=6	=6	=6	=6	=6	=6	=6
(4c#\yy	.	(4c#\	.	(4c#\	.	(4e#X/	.	(4g#/	.	1r	1r	.	(4C#\	.	4cc#X/	4cc#\	.	(4e#X/	4c#X\	.	(4c#\	.	((4e#X\ 4g#	.	(4ee#X\	.	(4gg#\	.
4f#\)yy	.	4f#\)	.	4f#\)	.	4f#/)	.	4a#X/)	.	.	.	.	4F#\)	.	4cc#/	4cc#\	.	4f#X/)	4c#\	.	4f#\)	.	4f#\)) 4a#X	.	4ff#\)	.	4aa#X\)	.
4d\yy	.	4d\	.	4d\	.	4f#/	.	4b\	.	.	.	.	4D\	.	4b-/	4b-\	.	4f#/	4d\	.	4d\	.	4f#\ 4b	.	4ff#\	.	4bb'\	.
4B\yy	.	4B\	.	4B/	.	4f#/	.	4dd\	.	.	.	.	4BB/	.	4dd/	4f#X/	.	4bX\	4d\ 4f#	.	4B\	.	4f#\ 4dd	.	4ff#\	.	4ddd'\	.
*	*	*	*	*	*	*	*	*	*	*	*	*	*	*	*v	*v	*	*	*	*	*	*	*	*	*	*	*	*
=7	=7	=7	=7	=7	=7	=7	=7	=7	=7	=7	=7	=7	=7	=7	=7	=7	=7	=7	=7	=7	=7	=7	=7	=7	=7	=7	=7
*	*	*	*	*	*	*	*	*	*	*	*	*	*2\right	*	*	*	*	*	*	*	*	*	*	*	*	*	*
2.e\	.	2.E\	.	2.E/	.	(4e/	.	(4cc#\	.	1r	2r	.	2.E\	.	4e\ 4cc#X	.	4e'/	4e\	.	(4A\	.	((4e\ 4cc#	.	(4ee\	.	(4ccc#\	.
.	.	.	.	.	.	8d/L)	.	8b\L)	.	.	.	.	.	.	8e\L 8ee	.	8E/L 8e	4ryy	.	8G#\L)	.	8d\L)) 8b	.	8dd\L)	.	8bb\L)	.
.	.	.	.	.	.	8c#/J	.	8a\J	.	.	.	.	.	.	8e\J 8ee	.	8E/J 8e	.	.	8A\J	.	8c#\J 8a	.	8cc#\J	.	8aa\J	.
.	.	.	.	.	.	4d/	.	4b\	.	.	4r	.	.	.	4e\ 4ee	.	4E/ 4e	2ryy	.	4G#\	.	4d\ 4b	.	4dd\	.	4bb\	.
4E\	.	4E\	.	4G#/	.	4e/	.	4cc#\	.	.	4Rcc\	.	4E\	.	4e\ 4ee	.	4E/ 4e	.	.	4G#\	.	4e\ 4cc#	.	4ee\	.	4ccc#\	.
!!LO:PB:g=original
=8	=8	=8	=8	=8	=8	=8	=8	=8	=8	=8	=8	=8	=8	=8	=8	=8	=8	=8	=8	=8	=8	=8	=8	=8	=8	=8	=8
*	*	*	*	*	*	*	*	*2\right	*	*	*tremolo	*	*	*	*	*	*	*	*	*	*	*	*	*	*	*2\right	*
(2E\yy	.	(2E\	.	(2G#/	.	(>2d/	.	(2b\	.	1ryy	32Rcc\LLL	.	(2E\	.	2.e\ 2.ee	.	2.e/	(2E\	.	(2G#\	.	((2d\ 2b	.	(2dd\	.	(2bb\	.
.	.	.	.	.	.	.	.	.	.	.	32Rcc\	.	.	.	.	.	.	.	.	.	.	.	.	.	.	.	.
.	.	.	.	.	.	.	.	.	.	.	32Rcc\	.	.	.	.	.	.	.	.	.	.	.	.	.	.	.	.
.	.	.	.	.	.	.	.	.	.	.	32Rcc\	.	.	.	.	.	.	.	.	.	.	.	.	.	.	.	.
.	.	.	.	.	.	.	.	.	.	.	32Rcc\	.	.	.	.	.	.	.	.	.	.	.	.	.	.	.	.
.	.	.	.	.	.	.	.	.	.	.	32Rcc\	.	.	.	.	.	.	.	.	.	.	.	.	.	.	.	.
.	.	.	.	.	.	.	.	.	.	.	32Rcc\	.	.	.	.	.	.	.	.	.	.	.	.	.	.	.	.
.	.	.	.	.	.	.	.	.	.	.	32Rcc\	.	.	.	.	.	.	.	.	.	.	.	.	.	.	.	.
.	.	.	.	.	.	.	.	.	.	.	32Rcc\	.	.	.	.	.	.	.	.	.	.	.	.	.	.	.	.
.	.	.	.	.	.	.	.	.	.	.	32Rcc\	.	.	.	.	.	.	.	.	.	.	.	.	.	.	.	.
.	.	.	.	.	.	.	.	.	.	.	32Rcc\	.	.	.	.	.	.	.	.	.	.	.	.	.	.	.	.
.	.	.	.	.	.	.	.	.	.	.	32Rcc\	.	.	.	.	.	.	.	.	.	.	.	.	.	.	.	.
.	.	.	.	.	.	.	.	.	.	.	32Rcc\	.	.	.	.	.	.	.	.	.	.	.	.	.	.	.	.
.	.	.	.	.	.	.	.	.	.	.	32Rcc\	.	.	.	.	.	.	.	.	.	.	.	.	.	.	.	.
.	.	.	.	.	.	.	.	.	.	.	32Rcc\	.	.	.	.	.	.	.	.	.	.	.	.	.	.	.	.
.	.	.	.	.	.	.	.	.	.	.	32Rcc\JJJ	.	.	.	.	.	.	.	.	.	.	.	.	.	.	.	.
*	*	*	*	*	*	*	*	*	*	*	*Xtremolo	*	*	*	*	*	*	*	*	*	*	*	*	*	*	*	*
4A\)yy	.	4A\)	.	4A/)	.	4c#/)	.	4a/)	.	.	4A\	.	4A\)	.	.	.	.	4A\)	.	4A\)	.	4c#\)) 4a	.	4b\)	.	4aa\)	.
4ryy	.	4r	.	4r	.	4r	.	4r	.	.	4r	.	4r	.	4r	.	4r	4ryy	.	4r	.	4r	.	4r	.	4r	.
*	*	*	*	*	*	*	*	*	*	*	*	*	*	*	*	*	*v	*v	*	*	*	*	*	*	*	*	*
=9	=9	=9	=9	=9	=9	=9	=9	=9	=9	=9	=9	=9	=9	=9	=9	=9	=9	=9	=9	=9	=9	=9	=9	=9	=9	=9
*	*	*	*	*	*	*	*	*	*	*	*	*	*	*	*^	*	*	*	*	*	*	*	*	*	*	*
4E\yy	.	4E\	.	4E\ 4B 4g#	.	4G#/ 4e 4b	.	4g#\ 4ee 4bb	.	4Rcc\	2RccTT\	.	4E\	.	4bX/	4g#X\ 4bnX	.	4G#X/ 4BX	.	4E\	.	4g#\ 4b	.	4gg#\	.	4bb\	.
4ryy	.	4r	.	4r	.	4r	.	4r	.	4r	.	.	8E\L	.	8e\L 8ee	2.ryy	.	8E\L 8e	.	4r	.	4r	.	4r	.	4r	.
.	.	.	.	.	.	.	.	.	.	.	.	.	8E\J	.	8e\J 8ee	.	.	8E\J 8e	.	.	.	.	.	.	.	.	.
2ryy	.	2r	.	2r	.	2r	.	2r	.	4Rcc\	4Rcc\	.	2E\	.	2e\ 2ee	.	.	2E\ 2e	.	2r	.	2r	.	2r	.	2r	.
.	.	.	.	.	.	.	.	.	.	8Rcc\L	4r	.	.	.	.	.	.	.	.	.	.	.	.	.	.	.	.
.	.	.	.	.	.	.	.	.	.	8Rcc\J	.	.	.	.	.	.	.	.	.	.	.	.	.	.	.	.	.
=10	=10	=10	=10	=10	=10	=10	=10	=10	=10	=10	=10	=10	=10	=10	=10	=10	=10	=10	=10	=10	=10	=10	=10	=10	=10	=10	=10
*	*	*	*	*	*	*	*	*	*	*	*	*	*	*	*	*	*	*^	*	*	*	*	*	*	*	*	*
4A\yy	.	4A\	.	4E\ 4A 4e	.	4A/ 4e 4cc#	.	4cc#\ 4ee 4aa	.	4Rcc\	2RfTT/	.	4A\	.	4cc#X/	4a\ 4cc#	.	4c#X/	4A\ 4c#	.	4AA/	.	4a\ 4cc#	.	4aa\	.	4ccc#\	.
4ryy	.	4r	.	4r	.	4r	.	4r	.	4r	.	.	8A\L	.	8a/L	8a\L	.	8A/L	8A\L	.	4r	.	4r	.	4r	.	4r	.
.	.	.	.	.	.	.	.	.	.	.	.	.	8A\J	.	8a/J	8a\J	.	8A/J	8A\J	.	.	.	.	.	.	.	.	.
2ryy	.	2r	.	2r	.	2r	.	2r	.	4Rcc\	4Rf/	.	2A\	.	2a/	2a\	.	2A/	2A\	.	2r	.	2r	.	2r	.	2r	.
.	.	.	.	.	.	.	.	.	.	8Rcc\L	4r	.	.	.	.	.	.	.	.	.	.	.	.	.	.	.	.	.
.	.	.	.	.	.	.	.	.	.	8Rcc\J	.	.	.	.	.	.	.	.	.	.	.	.	.	.	.	.	.	.
=11	=11	=11	=11	=11	=11	=11	=11	=11	=11	=11	=11	=11	=11	=11	=11	=11	=11	=11	=11	=11	=11	=11	=11	=11	=11	=11	=11	=11
4E\yy	.	4E\	.	4E\ 4B 4g#	.	4G#\ 4e 4b	.	4g#\ 4ee 4bb	.	4Rcc\	4Rcc\	.	4E\	.	4bnX/	4g#X\ 4bnX	.	4BnX/	4G#X\ 4BnX	.	4E\	.	4g#\ 4b	.	4gg#\	.	4bb\	.
4ryy	.	4r	.	4r	.	4r	.	4r	.	4r	8Rcc\L	.	8E\L	.	8e\L 8ee	2.ryy	.	8E\L 8e	2.ryy	.	4r	.	4r	.	4r	.	4r	.
.	.	.	.	.	.	.	.	.	.	.	8Rcc\J	.	8E\J	.	8e\J 8ee	.	.	8E\J 8e	.	.	.	.	.	.	.	.	.	.
4ryy	.	4r	.	4r	.	4r	.	4r	.	4r	4Rcc\	.	4E\	.	4e\ 4ee	.	.	4E\ 4e	.	.	4r	.	4r	.	4r	.	4r	.
*	*	*	*	*	*	*8va	*	*8va	*	*	*	*	*	*	*	*	*	*	*	*	*	*	*	*	*	*	*	*
4E\yy	.	4E\	.	4E\ 4e	.	4gg#/	.	4eee\	.	4Rcc\	4Rcc\	.	4E\	.	4g#/ 4b	.	.	4G#/ 4B	.	.	4E\	.	4g#\ 4ee	.	4gg#\	.	4eee\	.
=12	=12	=12	=12	=12	=12	=12	=12	=12	=12	=12	=12	=12	=12	=12	=12	=12	=12	=12	=12	=12	=12	=12	=12	=12	=12	=12	=12	=12
*	*	*	*	*	*	*	*	*	*	*	*	*	*	*	*	*	*	*	*	*	*	*	*^	*	*	*	*	*
4A\yy	.	4A\	.	4A\ 4e	.	4aa/	.	4ccc#\	.	4Rcc\	4Rf/	.	4AA/	.	4cc#X/	4a\ 4cc#	.	4c#X/	4A\ 4c#	.	4A\	.	4cc#/	4g#\ 4cc#	.	4aa\	.	4ccc#\	.
4d\yy	.	4d\	.	4e\	.	4gg#/	.	4bb\	.	4Rcc\	4r	.	4D\	.	4e\ 4ee	2.ryy	.	4e/	4e\	.	4d\	.	4b/	4g#\ 4b	.	4gg#\	.	4bb\	.
4c#\yy	.	4c#\	.	4e\	.	4aa/	.	4aa/	.	4Rcc\	4r	.	4C#/	.	4e\ 4ee	.	.	4e/	4e\	.	4c#\	.	4a/	4a\	.	4aa\	.	4aa\	.
4A\yy	.	4A\	.	4e\	.	4aa/	.	4ccc#\	.	4r	4Rf/	.	4AA/	.	4e\ 4ee	.	.	4c#/	4A\ 4c#	.	4A\	.	4cc#/	4a\ 4cc#	.	4aa\	.	4ccc#\	.
*	*	*	*	*	*	*	*	*	*	*	*	*	*	*	*v	*v	*	*	*	*	*	*	*v	*v	*	*	*	*	*
*	*	*	*	*	*	*	*	*	*	*	*	*	*	*	*	*	*v	*v	*	*	*	*	*	*	*	*	*
*	*	*	*	*	*	*X8va	*	*X8va	*	*	*	*	*	*	*	*	*	*	*	*	*	*	*	*	*	*
=13	=13	=13	=13	=13	=13	=13	=13	=13	=13	=13	=13	=13	=13	=13	=13	=13	=13	=13	=13	=13	=13	=13	=13	=13	=13	=13
4E\yy	.	4E\	.	4E\ 4B 4g#	.	4G#\ 4e 4b	.	4g#\ 4ee 4bb	.	4ryy	2RccTT\	.	4E\	.	4e\ 4ee	.	4G#X/ 4BX	.	4E\	.	4g#\ 4b	.	4gg#\	.	4bb\	.
4ryy	.	4r	.	4r	.	4r	.	4r	.	4r	.	.	8E\L	.	8e\L 8ee	.	8E\L 8e	.	4r	.	4r	.	4r	.	4r	.
.	.	.	.	.	.	.	.	.	.	.	.	.	8E\J	.	8e\J 8ee	.	8E\J 8e	.	.	.	.	.	.	.	.	.
2ryy	.	2r	.	2r	.	2r	.	2r	.	4Rcc\	4Rcc\	.	2E\	.	2e\ 2ee	.	2E\ 2e	.	2r	.	2r	.	2r	.	2r	.
.	.	.	.	.	.	.	.	.	.	8Rcc\L	4r	.	.	.	.	.	.	.	.	.	.	.	.	.	.	.
.	.	.	.	.	.	.	.	.	.	8Rcc\J	.	.	.	.	.	.	.	.	.	.	.	.	.	.	.	.
=14	=14	=14	=14	=14	=14	=14	=14	=14	=14	=14	=14	=14	=14	=14	=14	=14	=14	=14	=14	=14	=14	=14	=14	=14	=14	=14
*	*	*	*	*	*	*	*	*	*	*	*	*	*	*	*^	*	*^	*	*	*	*	*	*	*	*	*
4A\yy	.	4A\	.	4E\ 4A 4e	.	4A\ 4e 4cc#	.	4a\ 4ee 4aa	.	4Rcc\	2RfT/	.	4A\	.	4ee/	4e\ 4ee	.	4c#X/	4A\ 4c#	.	4GG#/	.	4a\ 4cc#	.	4ccc#\	.	4ccc#\	.
4ryy	.	4r	.	4r	.	4r	.	4r	.	4r	.	.	8A\L	.	8a/L	8a\L	.	8A/L	8A\L	.	4r	.	4r	.	4r	.	4r	.
.	.	.	.	.	.	.	.	.	.	.	.	.	8A\J	.	8a/J	8a\J	.	8A/J	8A\J	.	.	.	.	.	.	.	.	.
2ryy	.	2r	.	2r	.	2r	.	2r	.	4Rcc\	4Rf/	.	2A\	.	2a/	2a\	.	2A/	2A\	.	2r	.	2r	.	2r	.	2r	.
.	.	.	.	.	.	.	.	.	.	8Rcc\L	4r	.	.	.	.	.	.	.	.	.	.	.	.	.	.	.	.	.
.	.	.	.	.	.	.	.	.	.	8Rcc\J	.	.	.	.	.	.	.	.	.	.	.	.	.	.	.	.	.	.
*	*	*	*	*	*	*	*	*	*	*	*	*	*	*	*v	*v	*	*	*	*	*	*	*	*	*	*	*	*
=15	=15	=15	=15	=15	=15	=15	=15	=15	=15	=15	=15	=15	=15	=15	=15	=15	=15	=15	=15	=15	=15	=15	=15	=15	=15	=15	=15
4E\yy	.	4E\	.	4E\ 4B 4g#	.	4G#\ 4e 4b	.	4g#\ 4ee 4bb	.	4Rcc\	4Rcc\	.	4E\	.	4e\ 4ee	.	4G#X/ 4BX	2.ryy	.	4E\	.	4g#\ 4b	.	4gg#\	.	4bb\	.
4ryy	.	4r	.	4r	.	4r	.	4r	.	4r	8Rcc\L	.	8E\L	.	8e\L 8ee	.	8E\L 8e	.	.	4r	.	4r	.	4r	.	4r	.
.	.	.	.	.	.	.	.	.	.	.	8Rcc\J	.	8E\J	.	8e\J 8ee	.	8E\J 8e	.	.	.	.	.	.	.	.	.	.
4ryy	.	4r	.	4r	.	4r	.	4r	.	4r	4Rcc\	.	4E\	.	4e\ 4ee	.	4E\ 4e	.	.	4r	.	4r	.	4r	.	4r	.
4E\yy	.	4E\	.	4E\ 4G# 4d	.	4G#/ 4e 4b	.	4e\ 4cc# 4gg#	.	4Rcc\	4Rcc\	.	4E\	.	4e\ 4ee	.	4e/	4d\	.	4B\	.	4dd\ 4gg#	.	4dd\	.	4gg#\	.
=16	=16	=16	=16	=16	=16	=16	=16	=16	=16	=16	=16	=16	=16	=16	=16	=16	=16	=16	=16	=16	=16	=16	=16	=16	=16	=16	=16
4A\yy	.	4A\	.	4A\ 4c#	.	4A\ 4e 4cc#	.	4e\ 4cc# 4aa	.	4Rcc\	4Rf/	.	4AA/	.	4e\ 4ee	.	4e/	4c#X\ 4e	.	4A\	.	4cc#\ 4aa	.	4cc#\	.	4ccc#\	.
4E\yy	.	4E\	.	4r	.	4r	.	4r	.	4Rcc\	4Rcc\	.	4EE/	.	4r	.	4r	4ryy	.	4r	.	4r	.	4r	.	4r	.
4AA/yy	.	4AA/	.	2r	.	2r	.	2r	.	4Rcc\	4Rf/	.	4AA/	.	2r	.	2r	2ryy	.	2r	.	2r	.	2r	.	2r	.
4ryy	.	4r	.	.	.	.	.	.	.	4r	4r	.	4r	.	.	.	.	.	.	.	.	.	.	.	.	.	.
*	*	*	*	*	*	*	*	*	*	*	*	*	*	*	*	*	*v	*v	*	*	*	*	*	*	*	*	*
==	==	==	==	==	==	==	==	==	==	==	==	==	==	==	==	==	==	==	==	==	==	==	==	==	==	==
*-	*-	*-	*-	*-	*-	*-	*-	*-	*-	*-	*-	*-	*-	*-	*-	*-	*-	*-	*-	*-	*-	*-	*-	*-	*-	*-
!!!system-decoration: s1,s2,s3,s4{(s5)}s6,s7,s8,s9{(s10,s11)}(s12){(s13,s14)}
!!!RDF**kern: < = below
!!!RDF**kern: > = above
!!!AIN: 1 cbass 1 cello 1 clars 1 cor 1 fagot 1 flt 1 oboe 1 timpa 1 trngl 1 tromt 1 viola 2 violn
!!!ENC: Andrzej Gręziak
!!!END: 2021-11-04
!!!ENC: Marta Chmielewska
!!!END: 2021-11-05
